X: 122160
T: Leitrim Rover
C: Joe Liddy
S: "The Leitrim Fiddler" (Dublin 1981)
Z: BB
L: 1/8
M: 4/4
R: reel
Q: 1/4 = 170
K: Edor
AF | E2 FE B,EFE | BEFE dBAF | D2 A,B, DEFA | BFAF DEFD |
E2 FE BEFE | B,EFE dBAF | DEFA d2 fe | dBAF E2 :|
FA | Be e2 dfed | BdAB dBAF | E2 FE BEFA | B2 AF DEFA |
Be e2 dfed | BdAG FDFA | B2 Bd BAFE | DEFD E2 :|
